src/assets/footer/Group.svg

<svg fill="none" height="22" viewBox="0 0 35 22" width="35" xmlns="http://www.w3.org/2000/svg"><path clip-rule="evenodd" d="m30.1469 1.35453c-1.1449 1.11871-2.0701 2.14788-2.5973 2.76466-.643-.01266-1.3629-.01266-2.109 0l-.7072-1.26069c-.6684-1.19558-1.4018-2.520482-2.8163-2.288963-1.2733.218858-2.0963 1.311343-2.1858 2.957293-.0253.34728.0389.70722.18 1.02917-2.7647.69456-5.2852 2.17321-7.1247 3.34346-3.63917 2.32784-9.10428 5.77444-11.18795 8.48754-1.504872 1.9543-.899848 5.0156-.899848 5.0156h21.989798c3.6003 0 5.4651-.8872 6.4301-2.0574.9514-1.145 1.286-2.5721 1.286-6.3017v-5.58085c1.9028-.30839 3.4981-1.46598 3.9864-3.42033.7579-3.00974-2.4318-4.463068-4.2442-2.68779z" fill="#333" fill-rule="evenodd"/><g fill="#fbf5ef"><path d="m19.7683 4.62011c-.1519 0-.2867-.10762-.3156-.26227-.0326-.17454.0823-.34276.2568-.37531.435-.0814.8628-.12119 1.3068-.12119.9017-.01266 2.1768 0 2.1895 0 .1773.00181.3201.14741.3183.32467s-.1501.32105-.3246.31834c-.0127 0-1.2797-.01266-2.1787 0-.4087 0-.7967.03617-1.1928.11033-.0199.00362-.0398.00543-.0597.00543z"/><path d="m29.6324 5.79091c-.0226 0-.0452-.00271-.0687-.00724-.1737-.03798-.284-.20891-.246-.38254.3219-1.48498 1.3601-2.67785 2.7764-3.19153.1664-.06059.3509.02532.4115.19263s-.0254.3509-.1927.41149c-1.2073.43772-2.0918 1.45604-2.3676 2.72396-.0317.15103-.1646.25323-.3129.25323z"/><path d="m18.9589 10.7428c.2062-.2062.3861.1284.643.643.2568.5146.3861.7714.7714 1.0291.3862.2569.7714.1285 1.0292-.5145.2568-.6431.2568-1.0292.3861-1.5429.1285-.51459.5146-.64301.6431.1284.1284.7714-.0643 1.8648-.7715 2.572-.643.6431-1.4144.3862-2.0574-.2568s-.9017-1.8015-.6439-2.0583z"/><path d="m8.41407 21.544s-.12843-.1285-.12843-.643c0-.5146.25685-1.8006.64301-2.5721.38617-.7714 1.02918-2.0574 2.31425-2.1858 1.2851-.1285 1.9291.2568 2.7005.5145.7714.2569 1.7228.2705 2.2121.0127.4115-.2062.7587-.5146 1.0029-.9134.2569-.3862 1.0545-.4368.2569.8998-.7715 1.2861-2.4436 1.1576-3.2151 1.0292-1.0291-.1673-1.6722-.7714-2.8288-.643-.8104.0904-1.2861.7714-1.80064 1.929-.4757 1.0799-.51459 1.6722-.64301 2.0575-.12842.3861 0 .5146-.45038.5146"/><path d="m3.01306 17.4287c.25684 0 .33462.5399.23152 1.1061-.1031.5661-.23152 1.2091-.74611 1.2091-.51458 0-.38616-1.0292-.25684-1.4144.12842-.3862.25684-.9008.77143-.9008z"/><path d="m5.32745 17.1716c.41149 0 .12842 1.0292.12842 1.5429 0 .5146-.25684 1.1576-.70722 1.0292-.45037-.1285-.53991-.7588-.32105-1.4145.25684-.7723.51368-1.1576.89985-1.1576z"/></g></svg>

<svg width="35" height="22" viewBox="0 0 35 22" fill="none" xmlns="http://www.w3.org/2000/svg">
<path fill-rule="evenodd" clip-rule="evenodd" d="M30.1469 1.35453C29.002 2.47324 28.0768 3.50241 27.5496 4.11919C26.9066 4.10653 26.1867 4.10653 25.4406 4.11919L24.7334 2.8585C24.065 1.66292 23.3316 0.338018 21.9171 0.569537C20.6438 0.788395 19.8208 1.88088 19.7313 3.52683C19.706 3.87411 19.7702 4.23405 19.9113 4.556C17.1466 5.25056 14.6261 6.72921 12.7866 7.89946C9.14743 10.2273 3.68232 13.6739 1.59865 16.387C0.093778 18.3413 0.698802 21.4026 0.698802 21.4026H22.6886C26.2889 21.4026 28.1537 20.5154 29.1187 19.3452C30.0701 18.2002 30.4047 16.7731 30.4047 13.0435V7.46265C32.3075 7.15426 33.9028 5.99667 34.3911 4.04232C35.149 1.03258 31.9593 -0.420748 30.1469 1.35453Z" fill="#333333"/>
<path d="M19.7683 4.62011C19.6164 4.62011 19.4816 4.51249 19.4527 4.35784C19.4201 4.1833 19.535 4.01508 19.7095 3.98253C20.1445 3.90113 20.5723 3.86134 21.0163 3.86134C21.918 3.84868 23.1931 3.86134 23.2058 3.86134C23.3831 3.86315 23.5259 4.00875 23.5241 4.18601C23.5223 4.36327 23.374 4.50706 23.1995 4.50435C23.1868 4.50435 21.9198 4.49169 21.0208 4.50435C20.6121 4.50435 20.2241 4.54052 19.828 4.61468C19.8081 4.6183 19.7882 4.62011 19.7683 4.62011Z" fill="#FBF5EF"/>
<path d="M29.6324 5.79091C29.6098 5.79091 29.5872 5.7882 29.5637 5.78367C29.39 5.74569 29.2797 5.57476 29.3177 5.40113C29.6396 3.91615 30.6778 2.72328 32.0941 2.2096C32.2605 2.14901 32.445 2.23492 32.5056 2.40223C32.5662 2.56954 32.4802 2.75313 32.3129 2.81372C31.1056 3.25144 30.2211 4.26976 29.9453 5.53768C29.9136 5.68871 29.7807 5.79091 29.6324 5.79091Z" fill="#FBF5EF"/>
<path d="M18.9589 10.7428C19.1651 10.5366 19.345 10.8712 19.6019 11.3858C19.8587 11.9004 19.988 12.1572 20.3733 12.4149C20.7595 12.6718 21.1447 12.5434 21.4025 11.9004C21.6593 11.2573 21.6593 10.8712 21.7886 10.3575C21.9171 9.84291 22.3032 9.71449 22.4317 10.4859C22.5601 11.2573 22.3674 12.3507 21.6602 13.0579C21.0172 13.701 20.2458 13.4441 19.6028 12.8011C18.9598 12.1581 18.7011 10.9996 18.9589 10.7428Z" fill="#FBF5EF"/>
<path d="M8.41407 21.544C8.41407 21.544 8.28564 21.4155 8.28564 20.901C8.28564 20.3864 8.54249 19.1004 8.92865 18.3289C9.31482 17.5575 9.95783 16.2715 11.2429 16.1431C12.528 16.0146 13.172 16.3999 13.9434 16.6576C14.7148 16.9145 15.6662 16.9281 16.1555 16.6703C16.567 16.4641 16.9142 16.1557 17.1584 15.7569C17.4153 15.3707 18.2129 15.3201 17.4153 16.6567C16.6438 17.9428 14.9717 17.8143 14.2002 17.6859C13.1711 17.5186 12.528 16.9145 11.3714 17.0429C10.561 17.1333 10.0853 17.8143 9.57076 18.9719C9.09506 20.0518 9.05617 20.6441 8.92775 21.0294C8.79933 21.4155 8.92775 21.544 8.47737 21.544" fill="#FBF5EF"/>
<path d="M3.01306 17.4287C3.2699 17.4287 3.34768 17.9686 3.24458 18.5348C3.14148 19.1009 3.01306 19.7439 2.49847 19.7439C1.98389 19.7439 2.11231 18.7147 2.24163 18.3295C2.37005 17.9433 2.49847 17.4287 3.01306 17.4287Z" fill="#FBF5EF"/>
<path d="M5.32745 17.1716C5.73894 17.1716 5.45587 18.2008 5.45587 18.7145C5.45587 19.2291 5.19903 19.8721 4.74865 19.7437C4.29828 19.6152 4.20874 18.9849 4.4276 18.3292C4.68444 17.5569 4.94128 17.1716 5.32745 17.1716Z" fill="#FBF5EF"/>
</svg>
